_images/SocialNetwork/slack.svg

<svg width="32" height="32" viewBox="0 0 32 32" fill="none" xmlns="http://www.w3.org/2000/svg">
<rect x="-0.000976562" width="32.0001" height="32" rx="16" fill="#420047"/>
<path fill-rule="evenodd" clip-rule="evenodd" d="M13.3319 6C12.2263 6.00082 11.3316 6.89622 11.3324 7.99958C11.3316 9.10294 12.2271 9.99835 13.3327 9.99916H15.333V8.0004C15.3338 6.89704 14.4383 6.00163 13.3319 6C13.3327 6 13.3327 6 13.3319 6V6ZM13.3319 11.3333H7.99934C6.89378 11.3341 5.99821 12.2295 5.99903 13.3329C5.99739 14.4362 6.89296 15.3317 7.99853 15.3333H13.3319C14.4375 15.3325 15.333 14.4371 15.3322 13.3337C15.333 12.2295 14.4375 11.3341 13.3319 11.3333Z" fill="#36C5F0"/>
<path fill-rule="evenodd" clip-rule="evenodd" d="M25.9992 13.3329C26 12.2295 25.1044 11.3341 23.9989 11.3333C22.8933 11.3341 21.9977 12.2295 21.9986 13.3329V15.3333H23.9989C25.1044 15.3325 26 14.4371 25.9992 13.3329ZM20.6658 13.3329V7.99958C20.6667 6.89704 19.7719 6.00163 18.6663 6C17.5608 6.00082 16.6652 6.89622 16.666 7.99958V13.3329C16.6644 14.4362 17.5599 15.3317 18.6655 15.3333C19.7711 15.3325 20.6667 14.4371 20.6658 13.3329Z" fill="#2EB67D"/>
<path fill-rule="evenodd" clip-rule="evenodd" d="M18.6654 26.0001C19.7709 25.9993 20.6665 25.1039 20.6657 24.0005C20.6665 22.8972 19.7709 22.0018 18.6654 22.001H16.665V24.0005C16.6642 25.1031 17.5598 25.9985 18.6654 26.0001ZM18.6654 20.666H23.9987C25.1043 20.6652 25.9999 19.7698 25.999 18.6664C26.0007 17.5631 25.1051 16.6676 23.9995 16.666H18.6662C17.5606 16.6668 16.665 17.5622 16.6659 18.6656C16.665 19.7698 17.5598 20.6652 18.6654 20.666Z" fill="#ECB22E"/>
<path fill-rule="evenodd" clip-rule="evenodd" d="M5.99902 18.6661C5.99821 19.7694 6.89377 20.6649 7.99934 20.6657C9.10491 20.6649 10.0005 19.7694 9.99966 18.6661V16.6665H7.99934C6.89377 16.6673 5.99821 17.5627 5.99902 18.6661ZM11.3324 18.6661V23.9994C11.3307 25.1027 12.2263 25.9982 13.3319 25.9998C14.4375 25.999 15.333 25.1036 15.3322 24.0002V18.6677C15.3338 17.5644 14.4383 16.669 13.3327 16.6673C12.2263 16.6673 11.3316 17.5627 11.3324 18.6661C11.3324 18.6661 11.3324 18.6669 11.3324 18.6661Z" fill="#E01E5A"/>
</svg>

<svg xmlns="http://www.w3.org/2000/svg" width="32" height="32" fill="none"><rect width="32" height="32" x="-.001" fill="#420047" rx="16"/><path fill="#36C5F0" fill-rule="evenodd" d="M13.332 6a2 2 0 1 0 0 4h2.001V8a2.001 2.001 0 0 0-2.001-2Zm0 5.333H7.999a2 2 0 0 0 0 4h5.333a2 2 0 1 0 0-4Z" clip-rule="evenodd"/><path fill="#2EB67D" fill-rule="evenodd" d="M26 13.333a2 2 0 0 0-4.001 0v2h2a2 2 0 0 0 2-2Zm-5.334 0V8a2 2 0 0 0-4 0v5.333a2 2 0 1 0 4 0Z" clip-rule="evenodd"/><path fill="#ECB22E" fill-rule="evenodd" d="M18.665 26a2 2 0 1 0 0-3.999h-2v2c0 1.102.895 1.997 2 2Zm0-5.334H24a2 2 0 0 0 0-4h-5.333a2 2 0 0 0 0 4Z" clip-rule="evenodd"/><path fill="#E01E5A" fill-rule="evenodd" d="M5.999 18.666a2 2 0 0 0 4 0v-2H8a2 2 0 0 0-2 2Zm5.333 0V24a2 2 0 0 0 4 .001v-5.332a2 2 0 0 0-4-.002Z" clip-rule="evenodd"/></svg>
